X:1
T:Quel sol
T:Quel sol
T:Gio.Girolamo Kapsperger
C:Gio.Girolamo Kapsperger
%%score [ 1 2 3 ] { ( 4 6 ) | 5 }
L:1/8
Q:1/4=120
M:3/4
K:F
V:1 treble nm="Soprano 1" snm="S 1"
V:2 treble nm="Soprano 2" snm="S 2"
V:3 bass nm="Bass" snm="B"
V:4 treble nm="BC" snm="BC"
V:6 treble 
V:5 bass 
V:1
 f2 f2 e2 | d4 c2 | c4 c2 | B3 B A2 | G3 G F2 | F4 E2 | F6 :: c2 d2 e2 | f4 e2 | d4 c2 | B4 A2 | %11
w: Quel sol, che|lu- ce|par- ve,|sor- to, e'|mor- to'al on-|de in|sen.|Ca- de tra|cie- che|lar- ve|d'om- bre|
w: Quel fior, che|sem- bro|ro- sa,|spin- to, es-|tin- to dal|ven- to'in-|san'.|Su l'her- ba|ru- gia-|do- sa|lan- gue'al|
w: Quel giel, che|par- ve'ar-|gen- to,|scos- so, per-|cos- so da|rai del|sol.|In bre- ve|stil- la|spen- te|ca- de'al|
w: Quel mar, che|sem- bro|pa- ce,|pie- no, il|se- no sol|di pie-|ta.|Nel cru- do|sen fal-|la- ce|fe non|
w: Quel tuon, che|par- ve'hor-|ro- re,|le- ve, e|bre- ve col'|suon la-|su.|Si gan- do'il|van fu-|ro- re|nul- la'e|
w: Quel Re, che|fre- na'il|cie- lo,|so- lo, dal|po- lo ar-|re- sta'un|suon.|E sol, e|fio- r'e|gie- lo,|ma- r'e|
 G4 d2 |[M:4/4] BAGF E4 | D2 FG A=Bcc | c3 =B c4 | c2 c2 d2 de | f2 d4 B2- | B2 (3A/B/c/B G4 | %18
w: pien, quel|sol che lu- ce par-|ve, co- si pas- * sa'e non|du- * ra,|va- na pom- pa d'ho-|nor, e di|* Na- * * * tu-|
w: pian, quel|fior che sem- bra ro-|sa,- * * * * * *|||||
w: suol, quel|giel che par- ve'ar- gen-|to, * * * * * *|||||
w: ha, quel|mar che sem- bro pa-|ce, * * * * * *|||||
w: piu, quel|tuon che par- ve'hor- ro-|re; * * * * * *|||||
w: tuon, quel|Re che fre- na'e du-|ra, * * * * * *|||||
 F8 |] %19
w: ra.|
w: |
w: |
w: |
w: |
w: |
V:2
 d2 d2 c2 | B4 A2 | G4 F2 | G3 G F2 | B3 B D2 | G4 G2 | F6 :: A2 B2 c2 | d4 c2 | B4 A2 | G4 ^F2 | %11
w: Quel sol, che|lu- ce|par- ve,|sor- to, e'|mor- to'al on-|de in|sen.|Ca- de tra|cie- che|lar- ve|d'om- bre|
w: Quel fior, che|sem- bro|ro- sa,|spin- to, e'|tin- to dal|ven- to'in-|san'.|Su l'her- ba|ru- gia-|do- sa|lan- gue'al|
w: Quel giel, che|par- ve'ar-|gen- to,|scos- so, per-|cos- so da|rai del|sol.|In bre- ve|stil- la|spen- te|ca- de'al|
w: Quel mar, che|sem- bro|pa- ce,|pie- no, il|se- no sol|di pie-|ta.|Nel cru- do,|sen fal-|la- ce|fe non|
w: Quel tuon, che|par- ve'hor-|ro- re,|le- ve, e|bre- ve col'|suon la-|su.|Si gan- do'il|van fu-|ro- re|nul- la'e|
w: Quel Re, che|fre- na'il|cie- lo,|so- lo, dal|po- lo ar-|re- sta'un|suon.|E sol, e|fio- r'e|gie- lo,|ma- r'e|
 G4 B2 |[M:4/4] GFED D3 ^C | D2 DE F2 GG | F4 E4 | A2 A2 B2 Bc | d2 B4 G2- | G2 (3F/G/A/G F3 E | %18
w: pien, quel|sol che lu- ce par- *|ve, co- si pas- sa'e non|du- ra,|va- na pom- pa d'ho-|nor, e di|* Na- * * * tu- *|
w: pian, quel|fior che sem- bra ro- *|sa, * * * * *|||||
w: suol, quel|giel che par- ve'ar- gen- *|to, * * * * *|||||
w: ha, quel|mar che sem- bro pa- *|ce, * * * * *|||||
w: piu, quel|tuon che par- ve'hor- ro- *|re, * * * * *|||||
w: tuon, quel|Re che fre- na'e du- *|ra, * * * * *|||||
 F8 |] %19
w: ra.|
w: |
w: |
w: |
w: |
w: |
V:3
 D,2 D,2 A,,2 | B,,4 F,,2 | C,4 C,2 | G,,3 G,, D,2 | _E,3 E, B,,2 | C,4 C,2 | F,,6 :: F,2 F,2 E,2 | %8
w: Quel sol, che|lu- ce|par- ve,|sor- to, e'|mor- to'al on-|de in|sen.|Ca- de tra|
w: Quel fior, che|sem- bro|ro- sa,|spin- to, e'|tin- to dal|ven- to'in-|san'.|Su l'her- ba|
w: Quel giel, che|par- ve'ar-|gen- to,|scos- so, per-|cos- so da|rai del|sol.|In bre- ve|
w: Quel mar, che|sem- bro|pa- ce,|pie- no, il-|se- no sol|di pie-|ta.|Nel cru- do|
w: Quel tuon, che|par- ve'hor-|ro- re,|le- ve, e|bre- ve col'|suon la-|su.|Si gan- do'il|
w: Quel Re, che|fre- na'il|cie- lo,|so- lo, dal|po- lo ar-|re- sta'un|suon.|E sol, e|
 D,4 A,,2 | B,,4 F,,2 | G,,4 D,2 | G,,4 G,,2 |[M:4/4] G,>G, G,,>G,, A,,4 | D,2 D,C, F,2 E,E, | %14
w: cie- che|lar- ve|d'om- bre|pien, quel|sol che lu- ce par-|ve, co- si pas- sa'e non|
w: ru- gia-|do- sa|lan- gue'al|pian, quel|fior che sem- bra ro-|sa, * * * * *|
w: stil- la|spen- te|ca- de'al|suol, quel|giel che par- ve'ar- gen-|to, * * * * *|
w: sen fal-|la- ce|fe non|ha, quel|mar che sem- bro pa-|ce, * * * * *|
w: van fu-|ro- re|nul- la'e|piu, quel|tuon che par- ve'ho- ro-|re, * * * * *|
w: fio- r'e|gie- lo,|ma- r'e|tuon, quel|Re che re- na'e du-|ra, * * * * *|
 D,4 C,4 | F,2 E,2 D,2 D,C, | B,,4 G,,4 | A,,3 B,, C,4 | F,,8 |] %19
w: du- ra,|va- na pom- pa d'ho-|nor, e|di Na- tu-|ra.|
w: |||||
w: |||||
w: |||||
w: |||||
w: |||||
V:4
 [FAd]2 [FA]2 [Ec]2 | [FBd]4 [Ac]2 | [EGc]6 | [DGB]4 [FA]2 | [GB]4 [DF]2 | c6 | [CFA]6 :: %7
 [FAc]4 G2 | [FA]4 [CE]2 | [DF]4 [CFA]2 | [B,G]4 [^FA]2 | [DGB]4 [DB]2 |[M:4/4] [GB]4 A4 | x8 | %14
 c3 =B c4 | [FAc]2 [Gc]2 [Ad]4 | [DFB]4 [GBd]4- | [Bd]2 c[Bd] c4 | [FAc]8 |] %19
V:5
 D,2 D,2 A,,2 | B,,4 F,,2 | C,4 C,2 | G,,3 G,, D,2 | _E,3 E, B,,2 | [C,G,]4 C,2 | F,,6 :: %7
 F,2 F,2 E,2 | D,4 A,,2 | B,,4 F,,2 | G,,4 D,2 | G,,4 G,,2 |[M:4/4] G,2 G,,2 [A,,E,]4 | %13
 D,2 D,C, F,2 E,2 | D,4 C,4 | F,2 E,2 D,2 D,C, | B,,4 G,,4- | G,,2 A,,B,, [C,G,]4 | F,,8 |] %19
V:6
 x6 | x6 | x6 | x6 | x6 | F4 E2 | x6 :: x6 | x6 | x6 | x6 | x6 |[M:4/4] D4 D3 ^C | %13
 [DFA]3 [EG] [Ac]2 [Gc]2 | F4 E4 | x8 | x8 | G2 EG F3 E | x8 |] %19

